!!COM: Schubert, Franz
!!!CNT: Deutscher
!!!TXO: Deutsch
!!!LYR: Friedrich von Schiller
!!!OTL: "Dithyrambe"
!!!OPS: Op. 60
!!!ONM: No. 2
!!!ODT: 1824/
!!NB: Vocal melody only encoded.
!!NB: Original key
**kern	**silbe
*staff1	*
*clefG2	*
*k[f#c#g#]	*
*M6/8	*
*MM[Geschwind, feurig]	*
=6	=6
{8.a	{Nim-
16g#	-mer,
8a	das
8e	glaubt
8c#	mir,
8e	er-
=7	=7
8.e	-schei-
16g#	-nen
8b	die
4b	Go2t-
8a}	-ter,}
=8	=8
{8.cc#	{nim-
16b	-mer
8cc#	al-
4dd	-lein,
8d	|
=9	=9
8.d#	nim-
16c#	-mer
8d#	al-
4e}	-lein.}
8r	.
=10	=10
{8e	{Kaum
8e	dass
8e	ich
8.e#	Bac-
16f#	-chus,
8f#	den
=11	=11
8.a	Lu-
16g#	-sti-
8f#	-gen,
4f#	ha-
8e}	-be,}
=12	=12
{8e	{kommt
8cc#	auch
8cc#	schon
8cc#	A-
8ccn	-mor,
8cc	der
=13	=13
8.b	la2-
16cc#	-cheln-
8b	-de
4b	Kna-
8a}	-be,}
=14	=14
{8a	{Pho2-
8a	-bus,
8a	der
8.dd	Herr-
16d	-li-
8e	-che,
=15	=15
8f#	fin-
8gn	-der
8e	sich
4.a}	ein,}
=16	=16
{8b	{Pho2-
8b	-bus,
8b	der
8.dd	Herr-
16d	-li-
8e	-che,
=17	=17
8f#	fin-
8gn	-det
8e	sich
4d}	ein.}
8r	.
=18	=18
4r	.
8r	.
4r	.
{8f#	{Sie
=19	=19
f#q	na-
g##q	|
8f#	|
8e	-hen,
8e	sie
8a#	kom-
8b	-men,
8e	die
=20	=20
f#q	Himm-
g##q	|
8f#	|
8e	-li-
8e	-schen
8a#	al-
8b}	-le,}
{8b	{mit
=21	=21
8.cc#	Go2t-
16dd	-tern
8cc#	er-
8cc#	-fu2llt
8c#	sich
8c#	die
=22	=22
8.d	ir-
16e	-di-
8d	-sche
8d	Hal-
8gn}	-le.}
{8b	{Sie
=23	=23
8b	na-
8e	-hen,
8e	sie
8e	kom-
8c#	-men,
8a	die
=24	=24
8b	Himm-
8e	-li-
8e	-schen
8e	al-
8c#}	-le,}
{8cc#	{mit
=25	=25
8cc#	Go2t-
8a#	-tern
8f#	er-
eq	-fu2llt
8d	|
8c#	sich
8B	die
=26	=26
8.A	ir-
16B	-di-
8A	-sche
4.e	Hal-
=27	=27
4c#}	-le,}
{8cc#	{mit
8cc#	Go2t-
8a#	-tern
8f#	er-
=28	=28
eq	-fu2llt
8d	|
8c#	sich
8B	die
8.A	ir-
16B	-di-
8A	-sche
=29	=29
2.e	Hal-
=30	=30
4.A}	-le.}
8r	.
8r	.
8r	.
==	==
*-	*-